!!!OTL: DA DRUNTEN IN DEM TIEFEN THALE
!!!ARE: Europa, Mitteleuropa, Deutschland, Lahngegend; Taunus
!!!SCT: E0108C
!!!YEM: Copyright 1995, estate of Helmut Schaffrath.
**kern
*ICvox
*Ivox
*M4/4
*k[b-e-a-]
*E-:
{8e-
8f
=1
4g
4g
8g
8b-
8a-
8g
=2
8g
8f
4f
4r}
{8f
8g
=3
4a-
4a-
8a-
8cc
8b-
8a-
=4
8a-
8g
4g
4r}
{8g
8a-
=5
4b-
8g
8a-
4b-
8cc
8dd
=6
4ee-
8dd
8cc
4cc
4b-}
=7
{4b-
8cc
8dd
4ee-
8dd
8cc
=8
4b-
8a-
8b-
4g}
{8g
8a-
=9
4b-
8g
8a-
4b-
8cc
8dd
=10
4ee-
8dd
8cc
4cc
4b-}
=11
{4b-
8cc
8dd
4ee-
8dd
8cc
=12
4b-
8a-
8b-
4g}
==
!!!AGN: erzaehlendes Volks - Lied, Sage, Liebe, Leid, Tod, Ballade ?
!!!ONB: ESAC (Essen Associative Code) Database: ERK1
!!!AMT: simple quadruple
!!!AIN: vox
!!!EED: Helmut Schaffrath
!!!EEV: 1.0
*-
